X:570
T: De jó vóna így élni
M:4/4
L:1/4
K:Bb
G/G/G/F/ E/D/ C | E E/F/ | EDC z |
c c/c/ B/A/ G | B B/A/ | G F G z |
c/c/c/c/ B/A/ G | B B/c/ | GFG z |
G G/F/ E/D/ C | E/D/E/F/ | E/ D/ C  z | 



